images_sukapura_svg/cmd/32/setminimalrowheight.svg

<svg viewBox="0 0 32 32" xmlns="http://www.w3.org/2000/svg"><path d="m4 13v6h24v-6z" fill="#fff"/><path d="m3 13v6h1 5 1 5 1 5 1 6 1v-6h-1-6-1-5-1-5-1-5zm1 1h5 1 5 1 5 1 6v4h-6-1-5-1-5-1-5z" fill="#69696e"/><path d="m9 14v4h1v-4zm6 0v4h1v-4zm6 0v4h1v-4z" fill="#bababa"/></svg>

<?xml version="1.0" encoding="UTF-8" standalone="no"?>
<svg
   xmlns:dc="http://purl.org/dc/elements/1.1/"
   xmlns:cc="http://creativecommons.org/ns#"
   xmlns:rdf="http://www.w3.org/1999/02/22-rdf-syntax-ns#"
   xmlns:svg="http://www.w3.org/2000/svg"
   xmlns="http://www.w3.org/2000/svg"
   xmlns:sodipodi="http://sodipodi.sourceforge.net/DTD/sodipodi-0.dtd"
   xmlns:inkscape="http://www.inkscape.org/namespaces/inkscape"
   viewBox="0 0 32 32"
   version="1.1"
   id="svg18"
   sodipodi:docname="setminimalrowheight.svg"
   inkscape:version="0.92.3 (unknown)"
   inkscape:export-filename="/home/rizmut/Dokumen/Rizmut/Github/libreoffice-style-sukapura/images_sukapura/cmd/32/setoptimalrowheight.png"
   inkscape:export-xdpi="96"
   inkscape:export-ydpi="96">
  <metadata
     id="metadata24">
    <rdf:RDF>
      <cc:Work
         rdf:about="">
        <dc:format>image/svg+xml</dc:format>
        <dc:type
           rdf:resource="http://purl.org/dc/dcmitype/StillImage" />
        <dc:title></dc:title>
      </cc:Work>
    </rdf:RDF>
  </metadata>
  <defs
     id="defs22">
    <linearGradient
       gradientTransform="translate(75,-7)"
       id="a-367"
       gradientUnits="userSpaceOnUse"
       x1="14"
       x2="13.79661"
       y1="22"
       y2="2.1355929">
      <stop
         offset="0"
         stop-color="#0040dd"
         id="stop2206" />
      <stop
         offset="1"
         stop-color="#0a84ff"
         id="stop2208" />
    </linearGradient>
  </defs>
  <sodipodi:namedview
     pagecolor="#ffffff"
     bordercolor="#666666"
     borderopacity="1"
     objecttolerance="10"
     gridtolerance="10"
     guidetolerance="10"
     inkscape:pageopacity="0"
     inkscape:pageshadow="2"
     inkscape:window-width="1366"
     inkscape:window-height="706"
     id="namedview20"
     showgrid="true"
     inkscape:snap-global="false"
     inkscape:zoom="2.8284271"
     inkscape:cx="5.2372856"
     inkscape:cy="-24.33227"
     inkscape:window-x="0"
     inkscape:window-y="0"
     inkscape:window-maximized="1"
     inkscape:current-layer="svg18">
    <inkscape:grid
       type="xygrid"
       id="grid834"
       spacingx="0.5"
       spacingy="0.5"
       empspacing="2" />
  </sodipodi:namedview>
  <path
     d="m4 13v6h24v-6z"
     fill="#fff"
     id="path2" />
  <path
     d="M 3 13 L 3 19 L 4 19 L 9 19 L 10 19 L 15 19 L 16 19 L 21 19 L 22 19 L 28 19 L 29 19 L 29 13 L 28 13 L 22 13 L 21 13 L 16 13 L 15 13 L 10 13 L 9 13 L 4 13 L 3 13 z M 4 14 L 9 14 L 10 14 L 15 14 L 16 14 L 21 14 L 22 14 L 28 14 L 28 18 L 22 18 L 21 18 L 16 18 L 15 18 L 10 18 L 9 18 L 4 18 L 4 14 z "
     id="path4"
     style="fill:#69696e;fill-opacity:1" />
  <path
     style="fill:#bababa;fill-opacity:1"
     d="M 9 14 L 9 18 L 10 18 L 10 14 L 9 14 z M 15 14 L 15 18 L 16 18 L 16 14 L 15 14 z M 21 14 L 21 18 L 22 18 L 22 14 L 21 14 z "
     id="rect869" />
</svg>
